src/assets/curso/temas/tema2/img_03.svg

<svg height="60.635" viewBox="0 0 60.635 60.635" width="60.635" xmlns="http://www.w3.org/2000/svg"><path d="m75.679 18.934v2.934h-58.679v-2.934a2.935 2.935 0 0 1 2.934-2.934h52.811a2.935 2.935 0 0 1 2.934 2.934z" fill="#57565c" transform="translate(-15.9 -15.022)"/><path d="m75.679 64v42.053a2.935 2.935 0 0 1 -2.934 2.934h-52.811a2.935 2.935 0 0 1 -2.934-2.934v-42.053z" fill="#83d8f4" transform="translate(-15.9 -57.154)"/><path d="m78.516 169.251a10.758 10.758 0 1 1 -16.626-9.017v-18.366a5.868 5.868 0 1 1 11.736 0v18.366a10.748 10.748 0 0 1 4.89 9.017z" fill="#ff9811" transform="translate(-51.01 -120.352)"/><path d="m88.823 198.141q-.153 0-.308-.006a7.824 7.824 0 0 1 -3.958-14.377l1.332-.868v-19.956a2.934 2.934 0 0 1 5.868 0v19.956l1.332.868a7.824 7.824 0 0 1 -4.265 14.383z" fill="#e0e0e2" transform="translate(-72.075 -141.418)"/><circle cx="16.902" cy="49.099" fill="#91cc04" r="4.472"/><path d="m269.556 286.669h2.444a4.053 4.053 0 0 0 .489-.028 4.4 4.4 0 1 0 -2.128-8.457 7.826 7.826 0 0 0 -14.992-1.072 4.89 4.89 0 1 0 -1.461 9.557z" fill="#e0e0e2" transform="translate(-219.557 -239.726)"/><g fill="#ffda44"><ellipse cx="47.31" cy="19.586" rx="4.472" ry="3.577"/><path d="m438.255 117.78.692-.692" transform="translate(-385.658 -103.752)"/><path d="m342.088 213.947.692-.692" transform="translate(-301.247 -188.163)"/><path d="m438.255 213.255.692.692" transform="translate(-385.658 -188.163)"/><path d="m342.088 117.088.692.692" transform="translate(-301.247 -103.752)"/></g><path d="m64.723 8h-52.811a3.916 3.916 0 0 0 -3.912 3.912v44.988a3.916 3.916 0 0 0 3.912 3.912h1.653a11.786 11.786 0 0 0 10.6 7.815c.154.006.308.009.461.009a11.76 11.76 0 0 0 11.074-7.825h29.023a3.917 3.917 0 0 0 3.912-3.911v-44.988a3.917 3.917 0 0 0 -3.912-3.912zm-33.315 55.945a9.78 9.78 0 1 1 -12.116-15.245.98.98 0 0 0 .444-.819v-18.365a4.89 4.89 0 0 1 9.78 0v18.366a.98.98 0 0 0 .444.819 9.781 9.781 0 0 1 1.449 15.244zm35.271-7.045a1.959 1.959 0 0 1 -1.956 1.956h-28.523a11.919 11.919 0 0 0 .161-1.956 11.7 11.7 0 0 0 -4.89-9.533v-1.226h1.956a.978.978 0 1 0 0-1.956h-1.955v-1.956h1.956a.978.978 0 1 0 0-1.956h-1.956v-1.956h1.956a.978.978 0 0 0 0-1.956h-1.956v-1.956h1.956a.978.978 0 0 0 0-1.956h-1.956v-1.955h1.956a.978.978 0 1 0 0-1.956h-2.028a6.846 6.846 0 0 0 -13.621.978v17.85a11.7 11.7 0 0 0 -4.722 11.489h-1.145a1.959 1.959 0 0 1 -1.956-1.955v-41.076h56.723zm0-43.031h-56.723v-1.957a1.959 1.959 0 0 1 1.956-1.956h52.811a1.959 1.959 0 0 1 1.956 1.956z" transform="translate(-8 -8)"/><path d="m40.978 33.956h5.868a.978.978 0 1 0 0-1.956h-5.868a.978.978 0 0 0 0 1.956z" transform="translate(-36.088 -29.066)"/><path d="m112.978 33.956h.978a.978.978 0 0 0 0-1.956h-.978a.978.978 0 1 0 0 1.956z" transform="translate(-99.286 -29.066)"/><path d="m85.6 175.917-.888-.578v-19.427a3.912 3.912 0 1 0 -7.824 0v19.426l-.888.578a8.8 8.8 0 0 0 4.456 16.175c.115 0 .23.006.344.006a8.8 8.8 0 0 0 4.8-16.181zm-4.8 14.225c-.09 0-.181 0-.27 0a6.846 6.846 0 0 1 -3.461-12.581l1.331-.869a.977.977 0 0 0 .444-.819v-19.961a1.956 1.956 0 0 1 3.912 0v19.956a.977.977 0 0 0 .444.819l1.331.869a6.846 6.846 0 0 1 -3.731 12.585z" transform="translate(-64.174 -134.396)"/><path d="m108.89 368a4.89 4.89 0 1 0 4.89 4.89 4.89 4.89 0 0 0 -4.89-4.89zm0 7.824a2.934 2.934 0 1 1 2.934-2.934 2.934 2.934 0 0 1 -2.934 2.934z" transform="translate(-92.264 -323.991)"/><path d="m264 269.867a5.347 5.347 0 0 0 -.961.086 8.8 8.8 0 0 0 -16.249-1 5.868 5.868 0 1 0 -.883 11.67h18.093a4.969 4.969 0 0 0 .6-.034 5.378 5.378 0 0 0 -.6-10.724zm.37 8.781a3.182 3.182 0 0 1 -.37.021h-18.1a3.912 3.912 0 1 1 1.169-7.645.981.981 0 0 0 1.21-.6 6.848 6.848 0 0 1 13.118.938.978.978 0 0 0 1.321.7 3.423 3.423 0 1 1 1.644 6.579z" transform="translate(-211.674 -232.704)"/><path d="m356.89 137.78a4.89 4.89 0 1 0 -4.89-4.89 4.89 4.89 0 0 0 4.89 4.89zm0-7.824a2.934 2.934 0 1 1 -2.934 2.934 2.934 2.934 0 0 1 2.934-2.934z" transform="translate(-309.947 -113.33)"/><path d="m384.978 90.934a.978.978 0 0 0 .978-.978v-.978a.978.978 0 1 0 -1.956 0v.978a.978.978 0 0 0 .978.978z" transform="translate(-338.035 -78.22)"/><path d="m384 224.978v.978a.978.978 0 0 0 1.956 0v-.978a.978.978 0 1 0 -1.956 0z" transform="translate(-338.035 -197.595)"/><path d="m448 160.978a.978.978 0 0 0 .978.978h.978a.978.978 0 1 0 0-1.956h-.978a.978.978 0 0 0 -.978.978z" transform="translate(-394.211 -141.418)"/><path d="m312.978 161.956h.978a.978.978 0 1 0 0-1.956h-.978a.978.978 0 1 0 0 1.956z" transform="translate(-274.837 -141.418)"/><path d="m430.233 111.735a.975.975 0 0 0 .691-.286l.692-.692a.978.978 0 1 0 -1.383-1.383l-.692.692a.978.978 0 0 0 .692 1.67z" transform="translate(-377.757 -96.73)"/><path d="m334.066 205.543-.692.692a.978.978 0 0 0 1.383 1.383l.691-.692a.978.978 0 0 0 -1.383-1.383z" transform="translate(-293.347 -181.143)"/><path d="m430.925 205.543a.978.978 0 1 0 -1.383 1.383l.692.691a.978.978 0 0 0 1.383-1.383z" transform="translate(-377.758 -181.142)"/><path d="m334.064 111.449a.978.978 0 1 0 1.383-1.383l-.692-.691a.978.978 0 0 0 -1.383 1.383z" transform="translate(-293.345 -96.73)"/><path d="m47.824 88h-6.846a.978.978 0 0 0 0 1.956h6.846a.978.978 0 0 0 0-1.956z" transform="translate(-36.088 -78.22)"/><path d="m42.934 112h-1.956a.978.978 0 0 0 0 1.956h1.956a.978.978 0 1 0 0-1.956z" transform="translate(-36.088 -99.286)"/></svg>

<svg xmlns="http://www.w3.org/2000/svg" width="60.635" height="60.635" viewBox="0 0 60.635 60.635"><g transform="translate(-8 -8)"><g transform="translate(9.1 8.978)"><path d="M75.679,18.934v2.934H17V18.934A2.935,2.935,0,0,1,19.934,16H72.745a2.935,2.935,0,0,1,2.934,2.934Z" transform="translate(-17 -16)" fill="#57565c"/><path d="M75.679,64v42.053a2.935,2.935,0,0,1-2.934,2.934H19.934A2.935,2.935,0,0,1,17,106.053V64Z" transform="translate(-17 -58.132)" fill="#83d8f4"/><path d="M78.516,169.251a10.758,10.758,0,1,1-16.626-9.017V141.868a5.868,5.868,0,1,1,11.736,0v18.366A10.748,10.748,0,0,1,78.516,169.251Z" transform="translate(-52.11 -121.33)" fill="#ff9811"/><path d="M88.823,198.141q-.153,0-.308-.006a7.824,7.824,0,0,1-3.958-14.377l1.332-.868V162.934a2.934,2.934,0,0,1,5.868,0V182.89l1.332.868a7.824,7.824,0,0,1-4.265,14.383Z" transform="translate(-73.175 -142.396)" fill="#e0e0e2"/><circle cx="4.472" cy="4.472" r="4.472" transform="translate(11.33 43.649)" fill="#91cc04"/><path d="M269.556,286.669H272a4.053,4.053,0,0,0,.489-.028,4.4,4.4,0,1,0-2.128-8.457,7.826,7.826,0,0,0-14.992-1.072,4.89,4.89,0,1,0-1.461,9.557Z" transform="translate(-220.657 -240.704)" fill="#e0e0e2"/><g transform="translate(39.741 12.358)"><ellipse cx="4.472" cy="3.577" rx="4.472" ry="3.577" transform="translate(1.997 2.673)" fill="#ffda44"/><path d="M438.255,117.78l.692-.692" transform="translate(-426.499 -117.088)" fill="#ffda44"/><path d="M342.088,213.947l.692-.692" transform="translate(-342.088 -201.499)" fill="#ffda44"/><path d="M438.255,213.255l.692.692" transform="translate(-426.499 -201.499)" fill="#ffda44"/><path d="M342.088,117.088l.692.692" transform="translate(-342.088 -117.088)" fill="#ffda44"/></g></g><g transform="translate(8 8)"><path d="M64.723,8H11.912A3.916,3.916,0,0,0,8,11.912V56.9a3.916,3.916,0,0,0,3.912,3.912h1.653a11.786,11.786,0,0,0,10.6,7.815c.154.006.308.009.461.009A11.76,11.76,0,0,0,35.7,60.811H64.723A3.917,3.917,0,0,0,68.635,56.9V11.912A3.917,3.917,0,0,0,64.723,8ZM31.408,63.945A9.78,9.78,0,1,1,19.292,48.7a.98.98,0,0,0,.444-.819V29.516a4.89,4.89,0,0,1,9.78,0V47.882a.98.98,0,0,0,.444.819,9.781,9.781,0,0,1,1.449,15.244ZM66.679,56.9a1.959,1.959,0,0,1-1.956,1.956H36.2a11.919,11.919,0,0,0,.161-1.956,11.7,11.7,0,0,0-4.89-9.533V46.141h1.956a.978.978,0,1,0,0-1.956H31.472V42.229h1.956a.978.978,0,1,0,0-1.956H31.472V38.317h1.956a.978.978,0,0,0,0-1.956H31.472V34.405h1.956a.978.978,0,0,0,0-1.956H31.472V30.494h1.956a.978.978,0,1,0,0-1.956H31.4a6.846,6.846,0,0,0-13.621.978V47.366a11.7,11.7,0,0,0-4.722,11.489H11.912A1.959,1.959,0,0,1,9.956,56.9V15.824H66.679Zm0-43.031H9.956V11.912a1.959,1.959,0,0,1,1.956-1.956H64.723a1.959,1.959,0,0,1,1.956,1.956Z" transform="translate(-8 -8)"/><path d="M40.978,33.956h5.868a.978.978,0,1,0,0-1.956H40.978a.978.978,0,0,0,0,1.956Z" transform="translate(-36.088 -29.066)"/><path d="M112.978,33.956h.978a.978.978,0,0,0,0-1.956h-.978a.978.978,0,1,0,0,1.956Z" transform="translate(-99.286 -29.066)"/><path d="M85.6,175.917l-.888-.578V155.912a3.912,3.912,0,1,0-7.824,0v19.426l-.888.578a8.8,8.8,0,0,0,4.456,16.175c.115,0,.23.006.344.006a8.8,8.8,0,0,0,4.8-16.181Zm-4.8,14.225c-.09,0-.181,0-.27,0a6.846,6.846,0,0,1-3.461-12.581l1.331-.869a.977.977,0,0,0,.444-.819V155.912a1.956,1.956,0,0,1,3.912,0v19.956a.977.977,0,0,0,.444.819l1.331.869A6.846,6.846,0,0,1,80.8,190.141Z" transform="translate(-64.174 -134.396)"/><path d="M108.89,368a4.89,4.89,0,1,0,4.89,4.89A4.89,4.89,0,0,0,108.89,368Zm0,7.824a2.934,2.934,0,1,1,2.934-2.934A2.934,2.934,0,0,1,108.89,375.824Z" transform="translate(-92.264 -323.991)"/><path d="M264,269.867a5.347,5.347,0,0,0-.961.086,8.8,8.8,0,0,0-16.249-1,5.868,5.868,0,1,0-.883,11.67H264a4.969,4.969,0,0,0,.6-.034,5.378,5.378,0,0,0-.6-10.724Zm.37,8.781a3.182,3.182,0,0,1-.37.021H245.9a3.912,3.912,0,1,1,1.169-7.645.981.981,0,0,0,1.21-.6,6.848,6.848,0,0,1,13.118.938.978.978,0,0,0,1.321.7,3.423,3.423,0,1,1,1.644,6.579Z" transform="translate(-211.674 -232.704)"/><path d="M356.89,137.78a4.89,4.89,0,1,0-4.89-4.89A4.89,4.89,0,0,0,356.89,137.78Zm0-7.824a2.934,2.934,0,1,1-2.934,2.934A2.934,2.934,0,0,1,356.89,129.956Z" transform="translate(-309.947 -113.33)"/><path d="M384.978,90.934a.978.978,0,0,0,.978-.978v-.978a.978.978,0,1,0-1.956,0v.978A.978.978,0,0,0,384.978,90.934Z" transform="translate(-338.035 -78.22)"/><path d="M384,224.978v.978a.978.978,0,0,0,1.956,0v-.978a.978.978,0,1,0-1.956,0Z" transform="translate(-338.035 -197.595)"/><path d="M448,160.978a.978.978,0,0,0,.978.978h.978a.978.978,0,1,0,0-1.956h-.978A.978.978,0,0,0,448,160.978Z" transform="translate(-394.211 -141.418)"/><path d="M312.978,161.956h.978a.978.978,0,1,0,0-1.956h-.978a.978.978,0,1,0,0,1.956Z" transform="translate(-274.837 -141.418)"/><path d="M430.233,111.735a.975.975,0,0,0,.691-.286l.692-.692a.978.978,0,1,0-1.383-1.383l-.692.692a.978.978,0,0,0,.692,1.67Z" transform="translate(-377.757 -96.73)"/><path d="M334.066,205.543l-.692.692a.978.978,0,0,0,1.383,1.383l.691-.692a.978.978,0,0,0-1.383-1.383Z" transform="translate(-293.347 -181.143)"/><path d="M430.925,205.543a.978.978,0,1,0-1.383,1.383l.692.691a.978.978,0,0,0,1.383-1.383Z" transform="translate(-377.758 -181.142)"/><path d="M334.064,111.449a.978.978,0,1,0,1.383-1.383l-.692-.691a.978.978,0,0,0-1.383,1.383Z" transform="translate(-293.345 -96.73)"/><path d="M47.824,88H40.978a.978.978,0,0,0,0,1.956h6.846a.978.978,0,0,0,0-1.956Z" transform="translate(-36.088 -78.22)"/><path d="M42.934,112H40.978a.978.978,0,0,0,0,1.956h1.956a.978.978,0,1,0,0-1.956Z" transform="translate(-36.088 -99.286)"/></g></g></svg>
